X: 5
T: The Irish Girl
R: reel
M: 4/4
L: 1/8
K: Dmaj
(AG)|!segno!FGAF DEFD|E(A, {B,}A,G,) A,2 (AG)|FGAF DEFG|(3fga ec dBAG|
FGAF DEFD|E>(A, {B,}(3A,G,A,) E>(A, {B,}(3A,G,A,)|FGAF DEFA|faec d2||
(ag)|fd{e}dc ~dcd.f|edcd efge|fd{e}dc dfaf|ec (3ABc d2 (ag)|
fd{e}dc dfaf|edcd efge|fdef gbag|(3fga (ec) dBAG!segno!||


Tune 844	Setting 14014

